src/lib/packages/icons/src/assets/line/arrow-turn-right-down.svg

<svg width="24" height="24" viewBox="0 0 24 24" fill="none" xmlns="http://www.w3.org/2000/svg">
<path d="M18.53 17.53L14.53 21.53C14.461 21.599 14.3781 21.6539 14.2871 21.6919C14.1961 21.7299 14.098 21.75 14 21.75C13.902 21.75 13.8049 21.7299 13.7129 21.6919C13.6209 21.6539 13.539 21.599 13.47 21.53L9.46997 17.53C9.17697 17.237 9.17697 16.762 9.46997 16.469C9.76297 16.176 10.238 16.176 10.531 16.469L13.251 19.189V6C13.251 4.759 12.241 3.75 11.001 3.75H6.00098C5.58698 3.75 5.25098 3.414 5.25098 3C5.25098 2.586 5.58698 2.25 6.00098 2.25H11.001C13.068 2.25 14.751 3.932 14.751 6V19.189L17.4709 16.469C17.7639 16.176 18.239 16.176 18.532 16.469C18.825 16.762 18.823 17.237 18.53 17.53Z" fill="currentColor"/>
</svg>

<svg xmlns="http://www.w3.org/2000/svg" width="24" height="24" fill="none"><path fill="currentColor" d="m18.53 17.53-4 4a.755.755 0 0 1-.817.162.744.744 0 0 1-.243-.162l-4-4a.75.75 0 1 1 1.061-1.061l2.72 2.72V6c0-1.241-1.01-2.25-2.25-2.25h-5a.75.75 0 0 1 0-1.5h5A3.755 3.755 0 0 1 14.751 6v13.189l2.72-2.72a.75.75 0 1 1 1.059 1.061Z"/></svg>
